src/assets/duotone/DiscountCircle.svg

<svg width="24" height="24" viewBox="0 0 24 24"  xmlns="http://www.w3.org/2000/svg">
<path opacity="0.4" d="M12 22C17.5228 22 22 17.5228 22 12C22 6.47715 17.5228 2 12 2C6.47715 2 2 6.47715 2 12C2 17.5228 6.47715 22 12 22Z" />
<path d="M15.0002 16C14.4402 16 13.9902 15.55 13.9902 15C13.9902 14.45 14.4402 14 14.9902 14C15.5402 14 15.9902 14.45 15.9902 15C15.9902 15.55 15.5502 16 15.0002 16Z" />
<path d="M9.01001 10C8.45001 10 8 9.55 8 9C8 8.45 8.45 8 9 8C9.55 8 10 8.45 10 9C10 9.55 9.56001 10 9.01001 10Z" />
<path d="M8.99997 15.75C8.80997 15.75 8.61994 15.68 8.46994 15.53C8.17994 15.24 8.17994 14.7599 8.46994 14.4699L14.4699 8.46994C14.7599 8.17994 15.24 8.17994 15.53 8.46994C15.82 8.75994 15.82 9.24 15.53 9.53L9.53 15.53C9.38 15.68 9.18997 15.75 8.99997 15.75Z" />
</svg>

<?xml version="1.0" encoding="UTF-8"?>
<svg width="24" height="24" viewBox="0 0 24 24" xmlns="http://www.w3.org/2000/svg">
 <path d="m12 22c5.5228 0 10-4.4772 10-10 0-5.5228-4.4772-10-10-10-5.5228 0-10 4.4772-10 10 0 5.5228 4.4772 10 10 10z" opacity=".4"/>
 <path d="m15 16c-0.56 0-1.01-0.45-1.01-1s0.45-1 1-1 1 0.45 1 1-0.44 1-0.99 1z"/>
 <path d="m9.01 10c-0.56 0-1.01-0.45-1.01-1s0.45-1 1-1 1 0.45 1 1-0.43999 1-0.98999 1z"/>
 <path d="m9 15.75c-0.19 0-0.38003-0.07-0.53003-0.22-0.29-0.29-0.29-0.7701 0-1.0601l6-6c0.29-0.29 0.7701-0.29 1.0601 0s0.29 0.77006 0 1.0601l-6 6c-0.15 0.15-0.34003 0.22-0.53003 0.22z"/>
</svg>
